X: 1
T: the Soup Dragon
C: Gordon Duncan
R: jig
N: taught by Ronan Martin, BHSFC Aug 2014
Z: 2014 John Chambers <jc:trillian.mit.edu> from Terry Traub's copy
F: https://www.youtube.com/watch?v=Mb21k-Vuv6Q
M: 6/8
L: 1/8
K: Bm
|: e |\
"Bm"f>BB BAB | (ef)f fed | "A"e>ee e2d | (ef)f ede |\
"Bm"f>BB BAB | "D"(ef)f fed | "A"e>ee "(F#m)"f2e | dBA "Bm"B2 :|
e |\
"D"(fa)a afd | (ef)f fed | "A"e>ee e2d | (ef)f ede |\
"D"(fa)a afd | (ef)f fed | "A"e>ee "(F#m)"f2e | dBA "Bm"B2 |]
e |\
"D"(fa)a afd | (ef)f fed | "A"e>ee e2d | (ef)f ede |\
"Bm"f>BB BAB | "D"(ef)f fed | "A"e>ee "(F#m)"f2e | dBA "Bm"B2 |]

%%sep 1 1 500

%%sep 1 1 500

